imgs/app-store.svg

<svg width="90" height="30" viewBox="0 0 90 30" fill="none" xmlns="http://www.w3.org/2000/svg">
<path d="M9.4945 22.3432H3.8656L2.51382 26.299H0.129639L5.46125 11.6635H7.93833L13.2699 26.299H10.8451L9.4945 22.3432ZM4.44857 20.5178H8.91041L6.71087 14.0978H6.64932L4.44857 20.5178ZM24.7844 20.9644C24.7844 24.2802 22.9937 26.4106 20.2913 26.4106C18.8944 26.4831 17.5787 25.758 16.9037 24.5438H16.8526V29.8289H14.6426V15.6286H16.7818V17.4033H16.8224C17.5274 16.1967 18.8445 15.472 20.2506 15.5169C22.9832 15.5169 24.7844 17.6577 24.7844 20.9644ZM22.5129 20.9644C22.5129 18.804 21.3864 17.3837 19.6676 17.3837C17.9791 17.3837 16.8433 18.8339 16.8433 20.9644C16.8433 23.1143 17.9791 24.5542 19.6676 24.5542C21.3864 24.5542 22.5129 23.1443 22.5129 20.9644ZM36.6345 20.9644C36.6345 24.2802 34.8437 26.4106 32.1413 26.4106C30.7445 26.4831 29.4288 25.758 28.7538 24.5438H28.7027V29.8289H26.4927V15.6286H28.6318V17.4033H28.6725C29.3774 16.1967 30.6946 15.472 32.1007 15.5169C34.8333 15.5169 36.6345 17.6577 36.6345 20.9644ZM34.3629 20.9644C34.3629 18.804 33.2365 17.3837 31.5177 17.3837C29.8292 17.3837 28.6934 18.8339 28.6934 20.9644C28.6934 23.1143 29.8292 24.5542 31.5177 24.5542C33.2365 24.5542 34.363 23.1443 34.363 20.9644H34.3629ZM44.4664 22.2212C44.6302 23.6725 46.0528 24.6255 47.9968 24.6255C49.8596 24.6255 51.1997 23.6725 51.1997 22.3638C51.1997 21.2279 50.3915 20.5477 48.4776 20.0815L46.5638 19.6246C43.8521 18.9755 42.5932 17.7186 42.5932 15.6791C42.5932 13.154 44.8137 11.4195 47.9666 11.4195C51.0871 11.4195 53.2262 13.154 53.2982 15.6791H51.0673C50.9338 14.2186 49.7155 13.337 47.9352 13.337C46.1549 13.337 44.9367 14.2289 44.9367 15.5272C44.9367 16.5619 45.7148 17.1708 47.6182 17.6369L49.2452 18.0328C52.2751 18.7429 53.534 19.9491 53.534 22.0899C53.534 24.828 51.3333 26.5429 47.833 26.5429C44.5581 26.5429 42.347 24.8683 42.2041 22.2211L44.4664 22.2212ZM58.3035 13.1034V15.6286H60.3509V17.363H58.3035V23.2455C58.3035 24.1594 58.7135 24.5852 59.6135 24.5852C59.8565 24.581 60.0992 24.5641 60.3405 24.5346V26.2587C59.9358 26.3336 59.5245 26.3675 59.1129 26.36C56.9332 26.36 56.0831 25.5485 56.0831 23.4791V17.363H54.5176V15.6286H56.083V13.1034H58.3035ZM61.5367 20.9644C61.5367 17.607 63.5318 15.4974 66.643 15.4974C69.7646 15.4974 71.7505 17.607 71.7505 20.9644C71.7505 24.3309 69.7751 26.4314 66.643 26.4314C63.512 26.4314 61.5367 24.3309 61.5367 20.9644ZM69.4987 20.9644C69.4987 18.6613 68.4337 17.302 66.643 17.302C64.8522 17.302 63.7885 18.6717 63.7885 20.9644C63.7885 23.2766 64.8522 24.6255 66.643 24.6255C68.4337 24.6255 69.4986 23.2766 69.4986 20.9644H69.4987ZM73.5725 15.6286H75.6803V17.4447H75.7314C76.0254 16.2756 77.1063 15.4709 78.3212 15.5169C78.5759 15.516 78.8298 15.5434 79.0784 15.5986V17.6473C78.7569 17.5499 78.4214 17.5052 78.0854 17.5149C77.4357 17.4888 76.8069 17.7454 76.3642 18.2174C75.9214 18.6894 75.7089 19.3296 75.7825 19.9699V26.299H73.5725L73.5725 15.6286ZM89.2677 23.165C88.9704 25.102 87.067 26.4313 84.6317 26.4313C81.4997 26.4313 79.5556 24.3516 79.5556 21.015C79.5556 17.668 81.5101 15.4973 84.5388 15.4973C87.5176 15.4973 89.3908 17.5253 89.3908 20.7606V21.511H81.7865V21.6434C81.7155 22.4378 81.9923 23.2241 82.5464 23.8024C83.1006 24.3807 83.8787 24.6951 84.6829 24.6658C85.7553 24.7654 86.7664 24.155 87.1692 23.1649L89.2677 23.165ZM81.797 19.9803L87.1797 19.9803C87.2198 19.2665 86.9576 18.5684 86.4563 18.0543C85.955 17.5403 85.26 17.2567 84.5388 17.2721C83.812 17.2678 83.1134 17.5515 82.5985 18.06C82.0837 18.5686 81.7951 19.2599 81.797 19.9803ZM4.1716 0.647281C5.1098 0.580555 6.02876 0.934319 6.67552 1.6112C7.32229 2.28808 7.62868 3.21674 7.51039 4.14156C7.51039 6.38821 6.2852 7.67963 4.1716 7.67963H1.60857V0.647281H4.1716ZM2.71066 6.6851H4.04849C4.71898 6.72482 5.37184 6.46301 5.82579 5.97236C6.27975 5.48172 6.48646 4.81447 6.38854 4.15589C6.47934 3.50004 6.26964 2.8383 5.81682 2.35165C5.36399 1.86501 4.71542 1.60438 4.04849 1.64106H2.71066V6.6851ZM8.75531 5.02372C8.66349 4.07248 9.12373 3.15188 9.943 2.64802C10.7623 2.14416 11.7989 2.14416 12.6182 2.64802C13.4375 3.15188 13.8977 4.07248 13.8059 5.02372C13.8995 5.97598 13.4396 6.89837 12.6196 7.40331C11.7996 7.90825 10.7616 7.90825 9.94156 7.40331C9.12157 6.89837 8.66175 5.97598 8.75531 5.02372ZM12.7189 5.02372C12.7189 3.87335 12.1974 3.20062 11.2823 3.20062C10.3637 3.20062 9.84699 3.87335 9.84699 5.02373C9.84699 6.18331 10.3638 6.85086 11.2823 6.85086C12.1975 6.85085 12.7189 6.17869 12.7189 5.02372H12.7189ZM20.5195 7.67952H19.4232L18.3165 3.7709H18.2328L17.1308 7.67952H16.0449L14.5689 2.3725H15.6408L16.6 6.42207H16.679L17.7799 2.3725H18.7938L19.8947 6.42207H19.9783L20.9329 2.3725H21.9897L20.5195 7.67952ZM23.2311 2.3725H24.2485V3.21557H24.3274C24.6021 2.59484 25.2438 2.21514 25.9254 2.27006C26.4532 2.23073 26.9704 2.43139 27.3309 2.81538C27.6915 3.19938 27.8563 3.72503 27.7789 4.24393V7.67946H26.7221V4.50694C26.7221 3.65409 26.3481 3.22996 25.5666 3.22996C25.2086 3.21343 24.8611 3.35267 24.6154 3.61117C24.3696 3.86967 24.25 4.22165 24.2879 4.57484V7.67952H23.2311L23.2311 2.3725ZM29.4628 0.300781H30.5196V7.67951H29.4628V0.300781ZM31.9886 5.02372C31.8969 4.07241 32.3572 3.15179 33.1765 2.64793C33.9959 2.14406 35.0326 2.14406 35.8519 2.64793C36.6712 3.15179 37.1315 4.07241 37.0398 5.02372C37.1332 5.97602 36.6733 6.89837 35.8533 7.40329C35.0333 7.90821 33.9952 7.90821 33.1751 7.40329C32.3551 6.89837 31.8952 5.97602 31.9886 5.02372ZM35.9522 5.02372C35.9522 3.87335 35.4308 3.20062 34.5157 3.20062C33.5971 3.20062 33.0803 3.87335 33.0803 5.02373C33.0803 6.18331 33.5971 6.85086 34.5157 6.85086C35.4308 6.85085 35.9522 6.17869 35.9522 5.02372H35.9522ZM38.1523 6.17869C38.1523 5.2234 38.87 4.67268 40.144 4.59441L41.5945 4.51155V4.05347C41.5945 3.49295 41.2205 3.17645 40.4982 3.17645C39.9083 3.17645 39.4995 3.3911 39.3822 3.76631H38.3591C38.4671 2.85476 39.3322 2.27008 40.547 2.27008C41.8895 2.27008 42.6466 2.93244 42.6466 4.05347V7.67953H41.6293V6.93372H41.5457C41.2002 7.47837 40.5857 7.79669 39.9373 7.76697C39.4827 7.81383 39.0293 7.66793 38.6893 7.36532C38.3492 7.06271 38.1541 6.63165 38.1523 6.17869ZM41.5945 5.72522V5.28153L40.2868 5.3644C39.5494 5.41331 39.2149 5.66191 39.2149 6.12977C39.2149 6.60741 39.633 6.88537 40.2079 6.88537C40.5482 6.91951 40.888 6.81531 41.1493 6.59661C41.4107 6.37792 41.5714 6.06346 41.5945 5.72522ZM44.0356 5.02372C44.0356 3.34679 44.9054 2.28446 46.2583 2.28446C46.9415 2.25326 47.5813 2.61605 47.9004 3.21553H47.9794V0.300781H49.0362V7.67951H48.0235V6.84104H47.9399C47.5967 7.43554 46.949 7.7922 46.2583 7.76697C44.8961 7.76703 44.0356 6.70468 44.0356 5.02372ZM45.1272 5.02372C45.1272 6.14935 45.6626 6.82668 46.558 6.82668C47.4487 6.82668 47.9992 6.13958 47.9992 5.02833C47.9992 3.92226 47.4429 3.22536 46.558 3.22536C45.6684 3.22536 45.1272 3.90729 45.1272 5.02372H45.1272ZM53.4086 5.02372C53.3167 4.07248 53.777 3.15188 54.5962 2.64802C55.4155 2.14416 56.4522 2.14416 57.2714 2.64802C58.0907 3.15188 58.551 4.07248 58.4591 5.02372C58.5527 5.97598 58.0929 6.89837 57.2729 7.40331C56.4529 7.90825 55.4148 7.90825 54.5948 7.40331C53.7748 6.89837 53.315 5.97598 53.4086 5.02372ZM57.3721 5.02372C57.3721 3.87335 56.8507 3.20062 55.9356 3.20062C55.017 3.20062 54.5002 3.87335 54.5002 5.02373C54.5002 6.18331 55.017 6.85086 55.9356 6.85086C56.8507 6.85085 57.3721 6.17869 57.3721 5.02372ZM59.8771 2.3725H60.8944V3.21557H60.9734C61.248 2.59484 61.8897 2.21514 62.5714 2.27006C63.0991 2.23073 63.6163 2.43139 63.9769 2.81538C64.3375 3.19938 64.5023 3.72503 64.4248 4.24393V7.67946H63.368V4.50694C63.368 3.65409 62.9941 3.22996 62.2125 3.22996C61.8545 3.21343 61.5071 3.35267 61.2613 3.61117C61.0156 3.86967 60.896 4.22165 60.9339 4.57484V7.67952H59.8771V2.3725ZM70.3963 1.05121V2.39667H71.5565V3.27888H70.3963V6.00778C70.3963 6.56369 70.6274 6.80711 71.1535 6.80711C71.2882 6.80668 71.4227 6.79861 71.5565 6.78294V7.65535C71.3667 7.689 71.1744 7.7069 70.9816 7.70887C69.8064 7.70887 69.3384 7.29913 69.3384 6.27594V3.27883H68.4883V2.39662H69.3384V1.05121H70.3963ZM73 0.300781H74.0475V3.22535H74.1311C74.4189 2.59919 75.0719 2.21901 75.7639 2.27466C76.2887 2.24636 76.7988 2.45144 77.1555 2.83404C77.5121 3.21664 77.678 3.73691 77.608 4.25314V7.67952H76.5502V4.51152C76.5502 3.66385 76.1518 3.23454 75.4051 3.23454C75.0375 3.20466 74.6752 3.33712 74.4153 3.59653C74.1553 3.85594 74.0242 4.21583 74.0568 4.58V7.6795H73L73 0.300781ZM83.7701 6.24659C83.4737 7.24765 82.4962 7.89444 81.4497 7.78195C80.7357 7.80063 80.0495 7.50731 79.5731 6.97981C79.0968 6.45231 78.8785 5.74396 78.9761 5.0427C78.8811 4.3395 79.0986 3.63001 79.5723 3.09806C80.046 2.5661 80.7292 2.26402 81.4451 2.27007C82.9351 2.27007 83.8339 3.27893 83.8339 4.94543V5.31089H80.0527V5.36958C80.0192 5.76339 80.1549 6.15292 80.4264 6.44237C80.6979 6.73181 81.08 6.89433 81.4788 6.88994C81.9958 6.95145 82.4991 6.69728 82.7527 6.24656L83.7701 6.24659ZM80.0526 4.53628H82.7573C82.7843 4.17611 82.6565 3.82142 82.4055 3.5596C82.1545 3.29779 81.8036 3.1532 81.4393 3.16148C81.07 3.15688 80.7145 3.30027 80.4535 3.55912C80.1924 3.81796 80.0479 4.17033 80.0527 4.53628H80.0526Z" fill="white"/>
</svg>

<svg width="90" height="30" fill="none" xmlns="http://www.w3.org/2000/svg"><path d="M9.495 22.343h-5.63L2.515 26.3H.13l5.33-14.636h2.477l5.332 14.635h-2.425l-1.35-3.956zm-5.046-1.825H8.91l-2.2-6.42h-.06l-2.201 6.42zm20.335.446c0 3.316-1.79 5.447-4.493 5.447a3.657 3.657 0 01-3.387-1.867h-.051v5.285h-2.21v-14.2h2.139v1.774h.04a3.827 3.827 0 013.429-1.886c2.732 0 4.533 2.14 4.533 5.447zm-2.271 0c0-2.16-1.127-3.58-2.845-3.58-1.689 0-2.825 1.45-2.825 3.58 0 2.15 1.136 3.59 2.825 3.59 1.718 0 2.845-1.41 2.845-3.59zm14.122 0c0 3.316-1.791 5.447-4.494 5.447a3.657 3.657 0 01-3.387-1.867h-.051v5.285h-2.21v-14.2h2.139v1.774h.04a3.827 3.827 0 013.429-1.886c2.732 0 4.534 2.14 4.534 5.447zm-2.272 0c0-2.16-1.127-3.58-2.845-3.58-1.689 0-2.825 1.45-2.825 3.58 0 2.15 1.136 3.59 2.825 3.59 1.718 0 2.845-1.41 2.845-3.59zm10.103 1.257c.164 1.451 1.587 2.404 3.53 2.404 1.864 0 3.204-.953 3.204-2.261 0-1.136-.809-1.816-2.722-2.283l-1.914-.456c-2.712-.65-3.97-1.906-3.97-3.946 0-2.525 2.22-4.26 5.373-4.26 3.12 0 5.26 1.735 5.331 4.26h-2.23c-.134-1.46-1.352-2.342-3.133-2.342-1.78 0-2.998.892-2.998 2.19 0 1.035.778 1.644 2.681 2.11l1.627.396c3.03.71 4.289 1.916 4.289 4.057 0 2.738-2.2 4.453-5.701 4.453-3.275 0-5.486-1.675-5.629-4.322h2.262zm13.837-9.118v2.526h2.048v1.734h-2.047v5.883c0 .913.41 1.34 1.31 1.34a7.4 7.4 0 00.727-.051v1.724a6.132 6.132 0 01-1.228.101c-2.18 0-3.03-.811-3.03-2.88v-6.117h-1.565v-1.734h1.565v-2.526h2.22zm3.234 7.861c0-3.357 1.995-5.467 5.106-5.467 3.122 0 5.108 2.11 5.108 5.467 0 3.367-1.976 5.467-5.108 5.467-3.131 0-5.106-2.1-5.106-5.467zm7.962 0c0-2.303-1.065-3.662-2.856-3.662-1.79 0-2.855 1.37-2.855 3.662 0 2.313 1.064 3.662 2.855 3.662 1.79 0 2.856-1.35 2.856-3.662zm4.074-5.335h2.107v1.816h.051a2.565 2.565 0 012.59-1.928c.255-.001.509.026.757.082v2.048a3.116 3.116 0 00-.993-.132 2.237 2.237 0 00-1.72.702 2.194 2.194 0 00-.582 1.753v6.329h-2.21v-10.67zm15.695 7.536c-.298 1.937-2.201 3.266-4.636 3.266-3.132 0-5.076-2.08-5.076-5.416 0-3.347 1.954-5.518 4.983-5.518 2.979 0 4.852 2.028 4.852 5.264v.75h-7.605v.132a2.77 2.77 0 00.76 2.16 2.817 2.817 0 002.137.863 2.438 2.438 0 002.486-1.501h2.099zm-7.471-3.185h5.383a2.553 2.553 0 00-.724-1.926 2.601 2.601 0 00-1.917-.782 2.739 2.739 0 00-1.94.788 2.69 2.69 0 00-.802 1.92zM4.172.647a3.154 3.154 0 012.504.964c.646.677.953 1.606.834 2.53 0 2.247-1.225 3.539-3.338 3.539H1.609V.647h2.563zM2.71 6.685h1.337a2.24 2.24 0 001.778-.713 2.2 2.2 0 00.563-1.816 2.204 2.204 0 00-.572-1.804 2.247 2.247 0 00-1.769-.71H2.711v5.043zm6.044-1.661a2.507 2.507 0 011.188-2.376 2.556 2.556 0 012.675 0 2.507 2.507 0 011.188 2.376 2.507 2.507 0 01-1.186 2.38 2.557 2.557 0 01-2.678 0 2.507 2.507 0 01-1.187-2.38zm3.964 0c0-1.15-.522-1.823-1.437-1.823-.918 0-1.435.672-1.435 1.823 0 1.16.517 1.827 1.435 1.827.915 0 1.437-.672 1.437-1.827zm7.8 2.656h-1.096l-1.106-3.91h-.084L17.13 7.68h-1.086l-1.476-5.307h1.072l.959 4.05h.079l1.1-4.05h1.015l1.1 4.05h.084l.955-4.05h1.057L20.52 7.68zm2.712-5.307h1.017v.843h.08c.274-.621.916-1 1.597-.946a1.75 1.75 0 011.406.545c.36.384.525.91.448 1.429v3.435h-1.057V4.507c0-.853-.374-1.277-1.155-1.277a1.234 1.234 0 00-.952.381 1.21 1.21 0 00-.327.964V7.68H23.23V2.373zM29.463.3h1.057v7.38h-1.057V.3zm2.526 4.723a2.508 2.508 0 011.187-2.376 2.557 2.557 0 012.676 0 2.508 2.508 0 011.188 2.376 2.508 2.508 0 01-1.187 2.38 2.557 2.557 0 01-2.678 0 2.508 2.508 0 01-1.186-2.38zm3.963 0c0-1.15-.521-1.823-1.436-1.823-.919 0-1.436.672-1.436 1.823 0 1.16.517 1.827 1.436 1.827.915 0 1.436-.672 1.436-1.827zm2.2 1.155c0-.956.718-1.506 1.992-1.585l1.45-.082v-.459c0-.56-.373-.877-1.096-.877-.59 0-.998.215-1.116.59H38.36c.108-.911.973-1.496 2.188-1.496 1.343 0 2.1.662 2.1 1.783V7.68H41.63v-.746h-.083c-.346.544-.96.863-1.609.833a1.627 1.627 0 01-1.248-.402 1.597 1.597 0 01-.537-1.186zm3.442-.454v-.443l-1.307.082c-.738.05-1.072.298-1.072.766 0 .477.418.755.993.755.34.035.68-.07.941-.288.262-.22.422-.534.445-.872zm2.442-.701c0-1.677.87-2.74 2.222-2.74a1.768 1.768 0 011.642.932h.08V.3h1.056v7.38h-1.013v-.84h-.083a1.862 1.862 0 01-1.682.926c-1.362 0-2.222-1.062-2.222-2.743zm1.091 0c0 1.125.536 1.803 1.431 1.803.89 0 1.441-.687 1.441-1.799 0-1.106-.556-1.803-1.441-1.803-.89 0-1.43.682-1.43 1.799zm8.282 0a2.507 2.507 0 011.187-2.376 2.556 2.556 0 012.675 0 2.507 2.507 0 011.188 2.376 2.507 2.507 0 01-1.186 2.38 2.557 2.557 0 01-2.678 0 2.507 2.507 0 01-1.186-2.38zm3.963 0c0-1.15-.521-1.823-1.436-1.823-.919 0-1.436.672-1.436 1.823 0 1.16.517 1.827 1.436 1.827.915 0 1.436-.672 1.436-1.827zm2.505-2.651h1.017v.843h.08c.274-.621.916-1 1.597-.946a1.75 1.75 0 011.406.545c.36.384.525.91.448 1.429v3.435h-1.057V4.507c0-.853-.374-1.277-1.156-1.277a1.234 1.234 0 00-.95.381 1.21 1.21 0 00-.328.964V7.68h-1.057V2.373zm10.52-1.322v1.346h1.16v.882h-1.16v2.729c0 .556.23.8.756.8.135-.001.27-.01.403-.025v.872c-.19.034-.382.052-.574.054-1.176 0-1.644-.41-1.644-1.433V3.279h-.85v-.882h.85V1.05h1.058zM73 .301h1.047v2.924h.084a1.65 1.65 0 011.633-.95 1.772 1.772 0 011.392.559c.356.383.522.903.452 1.42V7.68H76.55V4.512c0-.848-.398-1.277-1.145-1.277-.368-.03-.73.102-.99.362-.26.259-.39.619-.358.983v3.1H73V.3zm10.77 5.946a2.174 2.174 0 01-2.32 1.535 2.443 2.443 0 01-1.877-.802 2.397 2.397 0 01-.597-1.937 2.433 2.433 0 01.596-1.945 2.48 2.48 0 011.873-.828c1.49 0 2.389 1.009 2.389 2.675v.366h-3.781v.059c-.034.393.102.783.373 1.072.272.29.654.452 1.053.448a1.287 1.287 0 001.274-.643h1.017zm-3.717-1.71h2.704a1.27 1.27 0 00-.352-.977 1.298 1.298 0 00-.966-.399 1.376 1.376 0 00-.985.398 1.35 1.35 0 00-.401.977z" fill="#fff"/></svg>
